!!!COM: Beethoven, Ludwig van
!!!OTL: Piano Sonata no. 8 in C minor
**kern	**kern	**dynam
*part2	*part1	*part1
*staff2	*staff1	*staff1
*I"Piano	*I"Piano	*
*I'Pno	*I'Pno	*
*clefF4	*clefG2	*
*k[b-e-a-]	*k[b-e-a-]	*
*c:	*c:	*
*M4/4	*M4/4	*
=1	=1	=1
!	!LO:TX:a:t=Grave	!
[4CC [4EE- [4GG [4C	[4E- [4G [4c	fp
16.CC]LL 16.EE-] 16.GG] 16.C]	16.E-]LL 16.G] 16.c]	.
32E-K	32GK 32c	.
16.D	16.G 16.Bn 16.d	.
32CJJk	32GJJk 32c 32e-	.
(<4F#X	(>4An 4c 4e-	.
8G)	8Bn) 8d	.
16.r	8r	.
32AA-X/	.	.
=2	=2	=2
[4A-X	[4Bn [4d [4f	fp
16.A-LL]	16.B]LL 16.d] 16.f]	.
32A-K	32BnK 32d 32f	.
16.G	16.Bn 16.d 16.g	.
32FnJJk	32BnJJk 32d 32a-X	.
[4E-	(>4Bn 4d 4a-	.
8E-]	8c) 8e- 8g	.
16.r	8r	.
32E-	.	.
=3	=3	=3
[4e-	[4f#X [4an [4cc	fp
16.e-LL]	16.f#]LL 16.a] 16.cc]	.
32e-K	32f#XK 32an 32cc	.
16.d	16.f#X 16.an 16.dd	.
32cJJk	32f#XJJk 32an 32ee-	.
(4c	(>4f#X 4an 4ee-	fz
16Bn'LL)	16dLL) 16g 16dd	.
32r	32r	.
32e-K	32f#XK 32an 32cc	.
16.d	16.f#X 16.an 16.dd	.
32cJJk	32f#XJJk 32an 32ee-	.
=4	=4	=4
(4c	(4f#X/ 4an 4ee-	fz
8BnL 8d	8g/L 8dd	p
!	!LO:TX:t=cresc.	!
8B-XJ) 8c 8en	8gJ) 8cc 8een	.
8A-X' 8c 8fn	8a-X' 8cc 8ffn	.
8r	[8aa-X	fz
!	!	!LO:DY:b
4BBB-X 4BB-X	(32aa-LLL]	fz
.	96ggL	.
.	96aa-	.
.	96bb-	.
.	96aa-	.
.	96gg	.
.	96ffJJJJ	.
.	64ee-XLLLL	.
.	64dd	.
.	64cc	.
.	64b-JJJJ	.
.	96a-LLLL	.
.	96g	.
.	96fn	.
.	96e-X	.
.	96d	.
.	96f	.
.	96a-	.
.	96f	.
.	96dJJJJ	.
=5	=5	=5
16EE-X\LL 16E-X	8e-')	p
16E- 16G 16B-	.	.
16E- 16G 16B-	[8e-\ [8ee-	.
16E-JJ 16G 16B-	.	.
!	!	!LO:HP:b
16E-LL 16G 16B-	16.e-]LL 16.ee-]	<
16E- 16G 16B-	.	.
.	32e-K 32ee-	.
16E- 16G 16B-	16.f 16.ff	.
16E-JJ 16G 16B-	.	.
.	32gJJk 32gg	.
!	!	!LO:HP:b
16E-LL 16A- 16c	(8gL 8gg	>
16E- 16A- 16c	.	.
16E- 16A- 16c	16fJk) 16ff	.
16E-JJ 16A- 16c	32r	.
.	32f	ff
16DDLL 16D	16.FLL 16.A-X 16.Bn 16.f	.
16DD 16D	.	.
.	32FK 32A- 32Bn 32f	.
16CC 16C	16.F 16.A- 16.c 16.f	.
16CCJJ 16C	.	.
.	32FJJk 32A- 32c 32f	.
=6	=6	=6
16BBBn 16BBn	8F 8A- 8d 8f	.
16BBLL 16D 16F 16A-	.	.
16BBn 16D 16F 16A-	[8f [8ff	p
16BBnJJ 16D 16F 16A-	.	.
!	!	!LO:HP:b
16BB-XLL 16D 16F 16A-	16.f]LL 16.ff]	<
16BB- 16D 16F 16A-	.	.
.	32fK 32ff	.
16BB- 16D 16F 16A-	16.g 16.gg	.
16BB-JJ 16D 16F 16A-	.	.
.	32a-JJk 32aa-	.
!	!	!LO:HP:b
16BB-LL 16C#X 16En 16G	(8a-L 8aa-	>
16BB- 16C#X 16En 16G	.	.
16BB- 16C#X 16En 16G	16gJk) 16gg	.
16BB-JJ 16C#X 16En 16G	32r	.
.	32G 32c#X 32en 32g	ff
16AAAn/LL 16AAn	16.AnLL 16.c#X 16.en 16.an	.
16AAAn 16AA	.	.
.	32AnK 32c#X 32en 32a	.
16GGG 16GG	16.B-X 16.c#X 16.en 16.b-X	.
16GGGJJ 16GG	.	.
.	32B-JJk 32c#X 32en 32b-	.
=7	=7	=7
16FFF#X 16FF#X	8An 8d 8f#X 8an	.
16F#XLL 16An 16d	.	.
16F#X 16An 16d	[8an [8aan	p
16F#XJJ 16An 16d	.	.
!	!	!LO:HP:b
16F#XLL 16An 16d	16.a]LL 16.aa]	<
16F#X 16An 16d	.	.
.	32anK 32aan	.
16F#X 16An 16d	16.bn 16.bbn	.
16F#XJJ 16An 16d	.	.
.	32ccnJJk 32cccn	.
!	!	!LO:HP:b
16FnLL 16A-X 16d	(8ccL 8ccc	>
16F 16A- 16d	.	.
16F 16A- 16d	16bnJk) 16bbn	.
16FJJ 16A- 16d	16r	.
16DLL 16F 16Bn	8r	.
16D 16F 16B	.	.
16D 16F 16Bn	16.bnLL 16.bb	.
16DJJ 16F 16B	.	.
.	32ccJJk 32ccc	.
=8	=8	=8
!	!LO:TX:t=cresc.	!
16BBnLL 16D 16A-	(8cc#XL 8ccc#X	.
16BBn 16D 16A-	.	.
16BBn 16D 16A-	8ddJ) 8ddd	.
16BBnJJ 16D 16A-	.	.
16AA-XLL 16BBn 16F	8r	.
16AA- 16BBn 16F	.	.
16AA- 16BBn 16F	16.ddLL 16.ddd	.
16AA-JJ 16BBn 16F	.	.
.	32ee-JJk 32eee-	.
16GGLL 16BBn 16F	(8een 8eeen	.
16GG 16BBn 16F	.	.
16GG 16BBn 16F	4ffn) 4fffn	.
16GGJJ 16BBn 16F	.	.
16AA-LL 16C 16F	.	.
16AA- 16C 16F	.	.
16AA- 16C 16F	8ff 8fff	.
16AA-JJ 16C 16F	.	.
=9	=9	=9
8GG 8BBn 8F	[8ff [8fff	sf
8r	(32ff]LLL 32fff]	p
.	64eee-XL	.
.	64ddd	.
.	64fff	.
.	64eee-	.
.	64ddd	.
.	64cccnJJJJ)	.
8r	(16bbn'LL	.
.	16bb'	.
*clefG2	*	*
(16g'/LL 16dd	16ff' 16bb	.
16g'JJ) 16dd	16ff'JJ) 16bbn	.
8a- 8cc	8ee-X 8ccc	.
8r	8r	.
4r	4r	.
*clefF4	*	*
=10	=10	=10
4r	[8cccL	fp
.	(32cccLL]	.
.	64bbnL	.
.	64cccJJJ	.
.	96dddLLL	.
.	96ccc	.
.	96bb-X	.
.	96aa-	.
.	96gg	.
.	96bb-JJJJ	.
8r	16aa-'LL)	.
.	(16aa-'	.
(16F'LL 16c 16d	16aa-'	.
16F'JJ) 16c 16d	16aa-'JJ)	.
8G' 8c 8e-	(16ggLL	.
.	[16eee-JJ)	.
8r	(96eee-LLLL]	.
.	96ddd	.
.	96ddd-X	.
.	96ccc	.
.	96bbn	.
.	96bb-XJJJJ)	.
.	(112aanLLLL	.
.	112aa-X	.
.	112gg	.
.	112ff#X	.
.	112ffn	.
.	112een	.
.	112ee-XJJJJ)	.
8GG 8D 8F	(128ddnLLLLL	.
.	128cc#X	.
.	128ccn	.
.	128bn	.
.	128b-X	.
.	128an	.
.	128a-X	.
.	128g	.
.	128f#X	.
.	128fn	.
.	128en	.
.	128e-X	.
.	128d	.
.	128c#X	.
.	128cn	.
.	128BnJJJJJ)	.
8r;	16.a-;LL	sf
.	32BnJJk	.
=11	=11	=11
*M2/2	*M2/2	*
!LO:TX:b:i:t=attacca subito l'Allegro	!LO:TX:a:t=Allegro molto e con brio [quarter]=320	!
8CCL	2.c	p
8C	.	.
8CC	.	.
8CJ	.	.
8CCL	.	.
8C	.	.
8CC	4B-X' 4en	.
8CJ	.	.
=12	=12	=12
4CC@@8@@L	4A-' 4f	.
4C@@8@@J	4en' 4g	.
4CC@@8@@L	4f' 4a-	.
4C@@8@@J	4d' 4bn	.
=13	=13	=13
4CC@@8@@L	4e-X' 4cc	.
4C@@8@@J	2en 2cc	.
4CC@@8@@L	.	.
4C@@8@@J	4b-X' 4een	.
=14	=14	=14
4CC@@8@@L	4a-' 4ff	.
4C@@8@@J	4een' 4gg	.
4CC@@8@@L	4ff' 4aa-	.
4C@@8@@J	4dd' 4bbn	.
=15	=15	=15
!	!LO:TX:t=cresc.	!
4CC@@8@@L	2cc' 2ee-X 2gg 2ccc	.
4C@@8@@J	.	.
4DD@@8@@L	2g' 2bn 2ff 2gg	.
4D@@8@@J	.	.
=16	=16	=16
4EE-@@8@@L	2g' 2cc 2ee-	.
4E-@@8@@J	.	.
4FF@@8@@L	2f'\ 2a- 2dd	.
4F@@8@@J	.	.
=17	=17	=17
*	*^	*
4GG@@8@@L	[1e- [1cc	2g	.
4G@@8@@J	.	.	.
4AA-@@8@@/L	.	2f#X	.
4A-@@8@@/J	.	.	.
*	*v	*v	*
=18	=18	=18
4FF#X@@8@@L	(>2e-] 2an 2cc]	.
4F#X@@8@@J	.	.
4GG@@8@@L	2d) 2fn 2bn	.
4G@@8@@J	.	.
=19	=19	=19
4CC@@8@@L	4c' 4e- 4cc	p
4C@@8@@J	2c	.
4CC@@8@@L	.	.
4C@@8@@J	4B-X' 4en	.
=20	=20	=20
4CC@@8@@L	4A-' 4f	.
4C@@8@@J	4en' 4g	.
4CC@@8@@L	4f' 4a-X	.
4C@@8@@J	4d' 4bn	.
=21	=21	=21
4CC@@8@@L	4e-X' 4cc	.
4C@@8@@J	2en 2cc	.
4CC@@8@@L	.	.
4C@@8@@J	4b-X' 4een	.
=22	=22	=22
4CC@@8@@L	4a-' 4ff	.
4C@@8@@J	4een' 4gg	.
4CC@@8@@L	4ff' 4aa-	.
4C@@8@@J	4dd' 4bbn	.
=23	=23	=23
!	!LO:TX:t=cresc.	!
4CC@@8@@L	2cc' 2ee-X 2gg 2ccc	.
4C@@8@@J	.	.
4DD@@8@@L	2g' 2bn 2ff 2gg	.
4D@@8@@J	.	.
=24	=24	=24
4EE-@@8@@L	2g' 2cc 2ee-	.
4E-@@8@@J	.	.
4FF@@8@@L	2f'\ 2a- 2dd	.
4F@@8@@J	.	.
=25	=25	=25
*	*^	*
4GG@@8@@L	[1e- [1cc	2g	.
4G@@8@@J	.	.	.
4AA-@@8@@/L	.	2f#X	.
4A-@@8@@/J	.	.	.
*	*v	*v	*
=26	=26	=26
4FF#X@@8@@L	1e-] 1an 1cc]	.
4F#X@@8@@J	.	.
4FF#X@@8@@L	.	.
4F#X@@8@@J	.	.
=27	=27	=27
4GG 4G	4d 4g 4bn	p
4Bn 4d	4r	.
4Bn 4d	[2g [2gg	.
4Bn 4d	.	.
=28	=28	=28
4G	4g] 4gg]	.
4c 4e-	4r	.
4c 4e-	[2g [2gg	.
4c 4e-	.	.
=29	=29	=29
4d 4f	8g]L 8gg]	.
.	8ff	.
4r	8dd	.
.	8bnJ	.
2r	8gL	.
.	8f	.
.	8d	.
.	8BnJ	.
=30	=30	=30
2r	8cL	.
.	8e-	.
.	8c	.
.	8GJ	.
8AAA-L	8F#XL	.
8AA-	8c	.
8AAA-	8A-	.
8AA-J	8F#XJ	.
=31	=31	=31
4GGG 4GG	4G	.
4Bn 4d	4r	.
4Bn 4d	[2g [2gg	.
4Bn 4d	.	.
=32	=32	=32
4G	4g] 4gg]	.
4c 4e-	4r	.
4c 4e-	[2g [2gg	.
4c 4e-	.	.
=33	=33	=33
4d 4f	8g]L 8gg]	.
.	8ff	.
4r	8dd	.
.	8bnJ	.
2r	8gL	.
.	8f	.
.	8d	.
.	8BnJ	.
=34	=34	=34
2r	8cL	.
.	8e-	.
.	8c	.
.	8GJ	.
8AAA-L	8F#XL	.
8AA-	8c	.
8AAA-	8A-	.
8AA-J	8F#XJ	.
=35	=35	=35
4GGG@@8@@L	4G'	.
!	!LO:TX:t=cresc.	!
4GG@@8@@J	4f#X'	.
4GGG@@8@@L	4g'	.
4GG@@8@@J	4f#X' 4cc	.
=36	=36	=36
!	!	!LO:HP:b
4GGG@@8@@L	4g' 4bn	<
4GG@@8@@J	4cc' 4ff#X	.
4GGG@@8@@L	4bn' 4gg	.
4GG@@8@@J	4ff#X' 4ccc	.
=37	=37	=37
4GGG@@8@@L	4gg 4bbn	.
4GG@@8@@J	4r	.
4GGG@@8@@L	2r	.
4GG@@8@@J	.	.
=38	=38	=38
4GGG@@8@@L	(1B-X 1d-X [1e-X	.
4GG@@8@@J	.	.
4GGG@@8@@L	.	.
4GG@@8@@J	.	.
=39	=39	=39
4AAA-@@8@@L	4c) 4e-]	.
4AA-@@8@@J	4dd-X'	.
!	!	!LO:HP:b
4AAA-@@8@@L	4cc'	<
4AA-@@8@@J	4dd-X' 4gg	.
=40	=40	=40
4AAA-@@8@@L	4cc' 4aa-	.
4AA-@@8@@J	4gg' 4ddd-X	.
4AAA-@@8@@L	4aa-' 4ccc	.
4AA-@@8@@J	4gg' 4ddd-X	.
=41	=41	=41
4AAA-@@8@@L	4aa-' 4ccc	.
4AA-@@8@@J	4r	.
4AAA-@@8@@L	2r	.
4AA-@@8@@J	.	.
=42	=42	=42
4AAAn@@8@@L	(>1c 1e- 1g-X	.
4AAn@@8@@J	.	.
4AAAn@@8@@L	.	.
4AAn@@8@@J	.	.
=43	=43	=43
4BBB-@@8@@L	4dn') 4f	.
!	!LO:TX:t=cresc.	!
4BB-@@8@@J	4an' 4ee-	.
4BBB-@@8@@L	4b-' 4dd	.
4BB-@@8@@J	4ee-' 4aan	.
=44	=44	=44
!	!	!LO:HP:b
4BBB-@@8@@L	4dd' 4bb-	<
4BB-@@8@@J	4aan' 4eee-	.
4BBB-@@8@@L	4bb-' 4ddd	.
4BB-@@8@@J	4aan' 4eee-	.
=45	=45	=45
4BBB-@@8@@L	4bb-' 4ddd	.
4BB-@@8@@J	4r	.
4BBB-@@8@@L	(2ee- 2aan	.
4BB-@@8@@J	.	.
=46	=46	=46
4BBB-@@8@@L	4dd) 4bb-	.
4BB-@@8@@J	4r	.
4BBB-@@8@@L	(2an 2ee-	.
4BB-@@8@@J	.	.
=47	=47	=47
4BBB-@@8@@L	4b-) 4dd	.
4BB-@@8@@J	4r	.
4BBB-@@8@@L	(>2e- 2an	.
4BB-@@8@@J	.	.
=48	=48	=48
4BBB-@@8@@L	4d) 4b-	.
4BB-@@8@@J	4r	.
4BBB-@@8@@L	((<2An 2e-	.
4BB-@@8@@J	.	.
=49	=49	=49
4BBB- 4BB-	4B-)) 4d	.
4r	(4An	p
2r	4B-	.
.	4An	.
=50	=50	=50
1r	4B-	.
.	4An	.
.	4B-	.
.	4An)	.
*clefG2	*clefF4	*
=51	=51	=51
*^	*	*
4r	1B-	4r	.
4e- 4g-X	.	4BB-'	.
4e- 4g-	.	4E-'	.
4e- 4g-X	.	4F'	.
=52	=52	=52	=52
4r	1B-	4G-X'	.
*	*	*clefG2	*
4e- 4g-X	.	4b-'	.
4e- 4g-	.	4ee-'	.
4e- 4g-X	.	4ff'	.
=53	=53	=53	=53
.	.	(8qb-	.
4r	1B-	(2.gg-X)	.
4e- 4g-X	.	.	.
4e- 4g-	.	.	.
4e- 4g-X	.	4ee-)	.
=54	=54	=54	=54
.	.	(8qb-	.
4r	1B-	(2.gg-X)	.
4e- 4g-X	.	.	.
4e- 4g-	.	.	.
4e- 4g-X	.	4ee-)	.
=55	=55	=55	=55
4r	1B-	4dd'	.
*	*	*clefF4	*
4f 4a-	.	4BB-'	.
4f 4a-	.	4F'	.
4f 4a-	.	4G-X'	.
=56	=56	=56	=56
4r	1B-	4A-'	.
*	*	*clefG2	*
4f 4a-	.	(4b-	.
4f 4a-	.	4aa-	.
4f 4a-	.	4gg-X)	.
=57	=57	=57	=57
4r	1B-	(4gg-X	.
4f 4a-	.	4ff)	.
4f 4a-	.	(4ff	.
4f 4a-	.	4ee-)	.
=58	=58	=58	=58
4r	1B-	(4ee-	.
4f 4a-	.	4dd)	.
4f 4a-	.	4cc'	.
4f 4a-	.	4dd'	.
=59	=59	=59	=59
4r	1B-	4ee-'	.
*	*	*clefF4	*
4e- 4g-X	.	4BB-'\	.
4e- 4g-	.	4E-'	.
4e- 4g-X	.	4F'	.
=60	=60	=60	=60
4r	1B-	4G-X'	.
*	*	*clefG2	*
4e- 4g-X	.	4b-'	.
4e- 4g-	.	4ee-'	.
4e- 4g-X	.	4ff'	.
=61	=61	=61	=61
.	.	(8qb-	.
4r	1B-	(2.gg-X)	.
4e- 4g-X	.	.	.
4e- 4g-	.	.	.
4e- 4g-X	.	4ee-)	.
=62	=62	=62	=62
.	.	(8qb-	.
4r	1B-	(2.gg-X)	.
4e- 4g-X	.	.	.
4e- 4g-	.	.	.
4e- 4g-X	.	4ee-)	.
=63	=63	=63	=63
4r	1A-	4cc'	.
*	*	*clefF4	*
4e- 4g-X	.	4AA-'	.
4e- 4g-	.	4E-'	.
4e- 4g-X	.	4F'	.
=64	=64	=64	=64
4r	1A-	4G-X'	.
*	*	*clefG2	*
4e- 4g-X	.	(4a-\	.
4e- 4g-	.	4gg-X	.
4e- 4g-X	.	4ff)	.
=65	=65	=65	=65
4r	1A-	(4ff	.
4e- 4g-X	.	4ee-)	.
4e- 4g-	.	(4ee-	.
4e- 4g-X	.	4dd-X)	.
=66	=66	=66	=66
4r	1A-	(4dd-X	.
4e- 4g-X	.	4cc)	.
4e- 4g-	.	4b-'	.
4e- 4g-X	.	4cc'	.
=67	=67	=67	=67
4r	1A-	4dd-X	.
*	*	*clefF4	*
4d-X 4f	.	4AA-'	.
4d-X 4f	.	4D-X'	.
4d-X 4f	.	4E-'	.
=68	=68	=68	=68
4r	1A-	4F'	.
*	*	*clefG2	*
4d-X 4f	.	4a-'	.
4d-X 4f	.	4dd-X'	.
4d-X 4f	.	4ee-'	.
=69	=69	=69	=69
.	.	(8qa-	.
4r	1A-	(2.ff)	.
4d-X 4f	.	.	.
4d-X 4f	.	.	.
4d-X 4f	.	4dd-X)	.
=70	=70	=70	=70
.	.	(8qa-	.
4r	1A-	(2.ff)	.
4d-X 4f	.	.	.
4d-X 4f	.	.	.
4d-X 4f	.	4dd-X)	.
=71	=71	=71	=71
4r	1A-	4cc'	.
*	*	*clefF4	*
4e- 4g-X	.	4AA-'	.
4e- 4g-	.	4E-'	.
4e- 4g-X	.	4F'	.
=72	=72	=72	=72
4r	1A-	4G-X'	.
*	*	*clefG2	*
4e- 4g-X	.	(4a-	.
4e- 4g-	.	4gg-X	.
4e- 4g-X	.	4ff)	.
=73	=73	=73	=73
4r	1A-	(4ff	.
4e- 4g-X	.	4ee-)	.
4e- 4g-	.	(4ee-	.
4e- 4g-X	.	4dd-X)	.
=74	=74	=74	=74
4r	1A-	(4dd-X	.
4e- 4g-X	.	4cc)	.
4e- 4g-	.	4b-'	.
4e- 4g-X	.	4cc'	.
=75	=75	=75	=75
4r	2d-X	4dd-X'	.
*	*	*clefF4	*
4f 4a-	.	(4D-X	.
4r	2c-X	4A-)	.
4f 4a-	.	4C-X'	.
=76	=76	=76	=76
4r	1B-	4BB-'	.
*	*	*clefG2	*
4f 4a-	.	(4b-	.
4f 4a-	.	4aa-	.
4f 4a-	.	4gg-X)	.
=77	=77	=77	=77
4r	1B-	(4gg-X	.
4f 4a-	.	4ff)	.
4f 4a-	.	(4ff	.
4f 4a-	.	4ee-)	.
=78	=78	=78	=78
4r	1B-	(4ee-	.
4f 4a-	.	4ddn)	.
4f 4a-	.	4cc'	.
4f 4a-	.	4dd'	.
=79	=79	=79	=79
4r	2e-	4ee-	.
*	*	*clefF4	*
4g-X 4b-	.	(4E-	.
4r	2d-X	4B-)	.
4f 4b-	.	4D-X'	.
=80	=80	=80	=80
4r	1c	4C'	.
*	*	*clefG2	*
4gn 4b-	.	(4cc	.
4g 4b-	.	4bb-	.
4g 4b-	.	4aa-)	.
=81	=81	=81	=81
4r	1c	(4aa-	.
4g 4b-	.	4ggn)	.
4g 4b-	.	(4gg	.
4g 4b-	.	4ff)	.
=82	=82	=82	=82
4r	1c	(4ff	.
4g 4b-	.	4een)	.
4g 4b-	.	(4ddn	.
4g 4b-	.	4een)	.
=83	=83	=83	=83
4r	1f	(4gg	.
4a-	.	4ff)	.
4a-	.	(4ff	.
4a-	.	4ee-X)	.
=84	=84	=84	=84
4r	(2B-	(4ee-	.
4f 4a-	.	4dd)	.
4f 4a-	2Bn)	(4cc	.
4f 4a-	.	4dd)	.
=85	=85	=85	=85
4r	1c	(4ff	.
4e- 4g	.	4ee-)	.
4e- 4g	.	(4ee-	.
4e- 4g	.	4dd)	.
=86	=86	=86	=86
4r	1A-	(4dd	.
!	!	!LO:TX:t=decresc.	!
4e- 4f	.	4cc)	.
4e- 4f	.	(4cc	.
4e- 4f	.	4bn)	.
=87	=87	=87	=87
4r	1B-	(4cc	.
4e- 4g	.	4b-X)	.
4e- 4g	.	4b-'	.
4e- 4g	.	4b-'	.
=88	=88	=88	=88
4r	1B-	(4cc	pp
4d 4f	.	4b-)	.
4d 4f	.	4b-'	.
4d 4f	.	4b-'	.
*clefF4	*	*	*
=89	=89	=89	=89
*	*	*^	*
8r	[1E-	2ryy	8r	.
8B-L	.	.	8e-\L	p
8G	.	.	8g	.
8B-J	.	.	8e-J	.
8GL	.	[2ee-	8ee-L	.
8B-	.	.	8e-	.
8G	.	.	8g	.
8B-J	.	.	8e-J	.
=90	=90	=90	=90	=90
8GL	2E-]	2ee-]	8gL	.
8B-	.	.	8e-	.
8G	.	.	8g	.
8B-J	.	.	8e-J	.
8r	2E-	2ee-	8re	.
8B-L	.	.	8e-L	.
8G	.	.	8g	.
8B-J	.	.	8e-J	.
=91	=91	=91	=91	=91
8r	[1D-X	2ryy	8r	.
8B-L	.	.	8e-\L	.
8G	.	.	8g	.
8B-J	.	.	8e-J	.
8GL	.	[2ee-	8ee-L	.
8B-	.	.	8e-	.
8G	.	.	8g	.
8B-J	.	.	8e-J	.
=92	=92	=92	=92	=92
8GL	2D-X]	2ee-]	8gL	.
8B-	.	.	8e-	.
8G	.	.	8g	.
8B-J	.	.	8e-J	.
8r	2D-	2ee-	8r	.
8B-L	.	.	8e-L	.
8G	.	.	8g	.
8B-J	.	.	8e-J	.
*v	*v	*	*	*
=93	=93	=93	=93
!	!LO:TX:t=cresc.	!	!
*	*v	*v	*
8C'L	8ee-'\L	.
8A-	8e-	.
8E-	8a-	.
8A-J	8e-J	.
8BB-'L	8een'\L	.
8G	8en	.
8C	8cc	.
8GJ	8enJ	.
=94	=94	=94
8AA-'L	8ff'\L	.
8A-	8f	.
8C	8cc	.
8A-J	8fJ	.
8GG'L	8gg'L	.
8G	8g	.
8C	8cc	.
8GJ	8gJ	.
=95	=95	=95
8FF'L	8aa-'L	.
8F	8a-	.
8C	8cc	.
8FJ	8a-J	.
8EE-'L	8aan'L	.
8E-	8an	.
8FF	8cc	.
8E-J	8anJ	.
=96	=96	=96
8DD'L	8bb-'L	.
8D	8b-	.
8FF	8ff	.
8DJ	8b-J	.
!	!	!LO:HP:b
8CC'L	8ccc'L	<
8C	8cc	.
8FF	8ff	.
8CJ	8ccJ	.
=97	=97	=97
8BBB-'L	8ddd-X'L	.
8BB-	8dd-X	.
8FF	8ff	.
8BB-J	8dd-XJ	.
8AAA-'L	8dddn'L	.
8AA-	8ddn	.
8FF	8ff	.
8AA-J	8ddJ	.
=98	=98	=98
8GGG'L	8eee-'L	.
8GG	8ee-	.
8EE-	8gg	.
8GGJ	8ee-J	.
8GGG'L	8bbn'L	.
8GG	8bn	.
8EE-	8ee-	.
8GGJ	8bnJ	.
=99	=99	=99
4AAA-' 4AA-	8r	.
.	8ccL	f
4r	8ee-	.
.	8ccJ	.
2r	8ccc'L	.
.	8cc	.
.	8ee-	.
.	8ccJ	.
=100	=100	=100
4BBB-' 4BB-	8r	.
.	8fL	.
4r	8a-	.
.	8fJ	.
2r	8dd'L	.
.	8f	.
.	8a-	.
.	8fJ	.
=101	=101	=101
*^	*^	*
8r	[1E-	2ryy	8r	.
8B-L	.	.	8e-\L	p
8G	.	.	8g	.
8B-J	.	.	8e-J	.
8GL	.	[2ee-	8ee-L	.
8B-	.	.	8e-	.
8G	.	.	8g	.
8B-J	.	.	8e-J	.
=102	=102	=102	=102	=102
8GL	2E-]	2ee-]	8gL	.
8B-	.	.	8e-	.
8G	.	.	8g	.
8B-J	.	.	8e-J	.
8r	2E-	2ee-	8re	.
8B-L	.	.	8e-L	.
8G	.	.	8g	.
8B-J	.	.	8e-J	.
=103	=103	=103	=103	=103
8r	[1D-X	2ryy	8r	.
8B-L	.	.	8e-\L	.
8G	.	.	8g	.
8B-J	.	.	8e-J	.
8GL	.	[2ee-	8ee-L	.
8B-	.	.	8e-	.
8G	.	.	8g	.
8B-J	.	.	8e-J	.
=104	=104	=104	=104	=104
8GL	2D-X]	2ee-]	8gL	.
8B-	.	.	8e-	.
8G	.	.	8g	.
8B-J	.	.	8e-J	.
8r	2D-	2ee-	8re	.
8B-L	.	.	8e-L	.
8G	.	.	8g	.
8B-J	.	.	8e-J	.
*v	*v	*	*	*
=105	=105	=105	=105
!	!LO:TX:t=cresc.	!	!
*	*v	*v	*
8C'L	8ee-'\L	.
8A-	8e-	.
8E-	8a-	.
8A-J	8e-J	.
8BB-'L	8een'\L	.
8G	8en	.
8C	8cc	.
8GJ	8enJ	.
=106	=106	=106
8AA-'L	8ff'\L	.
8A-	8f	.
8C	8cc	.
8A-J	8fJ	.
8GG'L	8gg'L	.
8G	8g	.
8C	8cc	.
8GJ	8gJ	.
=107	=107	=107
8FF'L	8aa-'L	.
8F	8a-	.
8C	8cc	.
8FJ	8a-J	.
8EE-'L	8aan'L	.
8E-	8an	.
8FF	8cc	.
8E-J	8anJ	.
=108	=108	=108
8DD'L	8bb-'L	.
8D	8b-	.
8FF	8ff	.
8DJ	8b-J	.
!	!	!LO:HP:b
8CC'L	8ccc'L	<
8C	8cc	.
8FF	8ff	.
8CJ	8ccJ	.
=109	=109	=109
8BBB-'L	8ddd-X'L	.
8BB-	8dd-X	.
8FF	8ff	.
8BB-J	8dd-XJ	.
8AAA-'L	8dddn'L	.
8AA-	8ddn	.
8FF	8ff	.
8AA-J	8ddJ	.
=110	=110	=110
8GGG'L	8eee-'L	.
8GG	8ee-	.
8EE-	8bb-	.
8GGJ	8ee-J	.
8GGG'L	8eeen'L	.
8GG	8een	.
8GGG	8bb-	.
8GGJ	8eenJ	.
=111	=111	=111
4AAA- 4AA-	8r	.
.	8aa-L	f
4r	8ccc	.
.	8aa-J	.
2r	8fff'L	.
.	8aa-	.
.	8ccc	.
.	8aa-J	.
=112	=112	=112
4BBB- 4BB-	8r	.
.	8ffL	.
4r	8aa-	.
.	8ffJ	.
2r	8ddd'L	.
.	8ff	.
.	8aa-	.
.	8ffJ	.
=113	=113	=113
4EE-' 4E-	4gg	.
*clefG2	*	*
4e- 4g	(2eee-	p
4e- 4g	.	.
4e- 4g	8dddL	.
.	8eee-J	.
=114	=114	=114
*^	*	*
4r	1c	8fffL	.
.	.	8eee-	.
4e- 4g	.	8ddd	.
.	.	8cccJ	.
4e- 4g	.	8bbnL	.
.	.	8ccc	.
4e- 4g	.	8ddd	.
.	.	8cccJ	.
=115	=115	=115	=115
4r	1A-	8bb-XL	.
.	.	8aa-	.
4e- 4f	.	8gg	.
.	.	8ffJ	.
4e- 4f	.	8eenL	.
.	.	8ff	.
4e- 4f	.	8gg	.
.	.	8ffJ	.
=116	=116	=116	=116
4r	1B-	8ee-XL	.
.	.	8dd	.
4d 4f	.	8cc	.
.	.	8b-J	.
4d 4f	.	8an\L	.
.	.	8b-	.
4d 4f	.	8cc	.
.	.	8a-XJ)	.
*clefF4	*	*	*
=117	=117	=117	=117
4r	1E-	4g	.
!	!	!LO:TX:t=cresc.	!
4G 4e-	.	(2ee- 2eee-	.
4G 4e-	.	.	.
4G 4e-	.	8dddL	.
.	.	8eee-J	.
=118	=118	=118	=118
4r	1C	8fffL	.
.	.	8eee-	.
4E- 4G 4c	.	8ddd	.
.	.	8cccJ	.
4E- 4G 4c	.	8bbnL	.
.	.	8ccc	.
4E- 4G 4c	.	8ddd	.
.	.	8cccJ	.
=119	=119	=119	=119
4r	1AA-	8bb-XL	.
.	.	8aa-	.
4E- 4F 4A-	.	8gg	.
.	.	8ffJ	.
4E- 4F 4A-	.	8eenL	.
.	.	8ff	.
4E- 4F 4A-	.	8gg	.
.	.	8ffJ	.
=120	=120	=120	=120
4r	1BB-	8ee-XL	.
.	.	8dd	.
4D 4F 4B-	.	8cc	.
.	.	8b-J	.
4D 4F 4B-	.	8anL	.
.	.	8b-	.
4D 4F 4B-	.	8cc	.
.	.	8b-J	.
*v	*v	*	*
=121	=121	=121
4EE-@@8@@L	4ee-')	f
4E-@@8@@J	2e-^	.
4EE-@@8@@L	.	.
4E-@@8@@J	4d-X' 4g	.
=122	=122	=122
4EE-@@8@@L	4c' 4a-	.
4E-@@8@@J	4g' 4b-	.
4EE-@@8@@L	4a-'/ 4cc	.
4E-@@8@@J	4a-'/ 4ddn	.
=123	=123	=123
4EE-@@8@@L	4g' 4ee-	.
4E-@@8@@J	2ee-^	.
4EE-@@8@@L	.	.
4E-@@8@@J	4dd-X' 4gg	.
=124	=124	=124
4EE-@@8@@L	4cc' 4aa-	.
4E-@@8@@J	4gg' 4bb-	.
4EE-@@8@@L	4aa-' 4ccc	.
4E-@@8@@J	4aa-' 4dddn	.
=125	=125	=125
4EE-@@8@@L	1gg 1eee-	f
4E-@@8@@J	.	.
4EE-@@8@@L	.	.
4E-@@8@@J	.	.
=126	=126	=126
4DD@@8@@L	1g 1ee-	.
4D@@8@@J	.	.
4DD@@8@@L	.	.
4D@@8@@J	.	.
=127	=127	=127
4CC@@8@@L	1gg 1eee-	.
4C@@8@@J	.	.
4CC@@8@@L	.	.
4C@@8@@J	.	.
=128	=128	=128
4BBB-@@8@@L	1g 1ee-	.
4BB-@@8@@J	.	.
4BBB-@@8@@L	.	.
4BB-@@8@@J	.	.
=129	=129	=129
4AAA-@@8@@L	1ccc 1eee-	.
4AA-@@8@@J	.	.
4AAA-@@8@@L	.	.
4AA-@@8@@J	.	.
=130	=130	=130
4GGG@@8@@L	1cc 1ee-	.
4GG@@8@@J	.	.
4GGG@@8@@L	.	.
4GG@@8@@J	.	.
=131	=131	=131
1FFF#X 1FF#X	1aan 1ccc 1ddd	sf
=132	=132	=132
1GGG; 1GG	1F; 1Bn 1d	ff
=133:|!	=133:|!	=133:|!
1FFF#X 1FF#X	1aan 1ccc 1ddd	sf
=134	=134	=134
1FF#X; 1F#X	1An; 1c 1d	ff
=135	=135	=135
*M4/4	*M4/4	*
!	!LO:TX:a:t=Tempo primo [quarter]=40	!
[4GGG [4BBB- [4DD [4GG	[4G [4B- [4d [4g	fp
16.GGG]\LL 16.BBB-] 16.DD] 16.GG]	16.G]LL 16.B-] 16.d] 16.g]	.
32B-K	32dK 32g	.
16.An	16.d 16.f#X 16.an	.
32GJJk	32dJJk 32b-	.
(4c#X	(4en 4g 4b-	.
8d)	8f#X) 8an	.
16.r	8r	.
32E-	.	.
=136	=136	=136
[4e-	[4f#X [4an [4cc	fp
16.e-LL]	16.f#]LL 16.a] 16.cc]	.
32e-K	32f#XK 32an 32cc	.
16.d	16.f#X 16.an 16.dd	.
32cnJJk	32f#XJJk 32an 32ee-X	.
4.B-	(>(<(<4f#X/ 4an 4ee-	.
.	8g/))) 8b- 8dd	.
16.r	8r	.
32E-	.	.
=137	=137	=137
[4e-	[4f#X [4an [4cc	fp
16.e-LL]	16.f#]LL 16.a] 16.cc]	.
32e-K	32f#XK 32an 32cc	.
16.d	16.f#X 16.an 16.dd	.
32cJJk	32f#XJJk 32an 32dd#X	.
(8c	(>4f#X 4an 4dd#	p
4Bn)	.	.
.	4en 4g 4een	.
(8B	.	.
=138	=138	=138
8Bn)	4d#X 4f#X 4an	.
!	!LO:TX:t=decresc.	!
4BBn	.	.
.	4Bn 4en 4g	.
4BB	.	.
.	4An 4c 4d#X 4f#X	.
4BBBn	.	.
.	4F#X;) 4An 4d#X	pp
8BBB;	.	.
=139	=139	=139
*k[]	*k[]	*
*M2/2	*M2/2	*
!	!LO:TX:a:t=Allegro molto e con brio [quarter]=320	!
8EEL	4e'	p
8E	.	.
8EE	4a'	.
8EJ	.	.
!	!LO:TX:t=cresc.	!
8EEL	4g'	.
8E	.	.
8EE	4a'/ 4dd#X	.
8EJ	.	.
=140	=140	=140
4EE@@8@@L	4g' 4ee	.
4E@@8@@J	4dd#X' 4aa	.
4EE@@8@@L	4ee' 4gg	.
4E@@8@@J	4aa' 4ddd#X	.
=141	=141	=141
4EE 4E	4gg' 4eee	f
4G 4B	4r	.
4G 4B	4e'\ 4ee	.
4G 4B	4r	.
=142	=142	=142
4E	4r	.
4G 4B	4e'\ 4ee	p
4G 4B	4f#X' 4ff#X	.
4G 4B	4g' 4gg	.
=143	=143	=143
4E	(2g 2gg	.
4A 4c	.	.
4A 4c	4f#X) 4ff#X	.
4A 4c	4r	.
=144	=144	=144
4E-X	4r	.
4A 4c	4f#X' 4ff#X	.
4A 4c	4g' 4gg	.
4A 4c	4a' 4aa	.
=145	=145	=145
!	!LO:TX:t=cresc.	!
4DD@@8@@L	4a' 4aa	.
4D@@8@@J	4g'	.
4DD@@8@@L	4f#X'	.
4D@@8@@J	4g' 4cc#X	.
=146	=146	=146
4DD@@8@@L	4f#X'\ 4dd	.
4D@@8@@J	4cc#X' 4gg	.
4DD@@8@@L	4dd' 4ff#X	.
4D@@8@@J	4gg' 4ccc#X	.
=147	=147	=147
4DD 4D	4ff#X' 4ddd	f
4A 4c	4r	.
4A 4c	4f#X' 4ff#X	.
4A 4c	4r	.
=148	=148	=148
4D	4r	.
4A 4c	4f#X' 4ff#X	p
4A 4c	4g' 4gg	.
4A 4c	4a' 4aa	.
=149	=149	=149
4D	(2a 2aa	.
4G 4B-X	.	.
4G 4B-	4g) 4gg	.
4G 4B-X	4r	.
=150	=150	=150
4D-X	4r	.
4G 4B-X	4g' 4gg	.
4G 4B-	4a' 4aa	.
4G 4B-X	4b-X' 4bb-X	.
=151	=151	=151
!	!LO:TX:t=cresc.	!
4CC 4C	8b-XL	.
.	8bb-X	.
(4D-X	8b-X	.
.	8bb-XJ	.
4C)	4b-X@@8@@L	.
(4F	4bb-X@@8@@J	.
=152	=152	=152
!	!	!LO:HP:b
4E)	4b-X@@8@@L	<
(4d-X	4bb-X@@8@@J	.
4c)	4b-X@@8@@L	.
(4f	4bb-X@@8@@J	.
=153	=153	=153
4en)	4b-X@@8@@L	.
(4f#X	4bb-X@@8@@J	.
4g)	4b-X@@8@@L	.
4r	4bb-X@@8@@J	.
=154	=154	=154
1r	4b-X@@8@@L	.
.	4bb-X@@8@@J	.
.	4b-X@@8@@L	.
.	4bb-X@@8@@J	.
=155	=155	=155
4r	4an@@8@@L	.
(4GG-X	4aa@@8@@J	.
4FF)	4a@@8@@L	.
(4D-X	4aa@@8@@J	.
=156	=156	=156
4C\)	4a@@8@@L	.
(4G-X	4aa@@8@@J	.
4F)	4a@@8@@L	.
(4d-X	4aa@@8@@J	.
=157	=157	=157
4c)	4a@@8@@L	.
(4en	4aa@@8@@J	.
4f)	4a@@8@@L	.
4r	4aa@@8@@J	.
=158	=158	=158
1r	4a@@8@@L	.
.	4aa@@8@@J	.
.	4a@@8@@L	.
.	4aa@@8@@J	.
=159	=159	=159
4r	4a-X@@8@@L	.
(4C	4aa-X@@8@@J	.
4BB	4a-X@@8@@L	.
4D/)	4aa-X@@8@@J	.
=160	=160	=160
4F'	4a-X@@8@@L	.
(4c	4aa-X@@8@@J	.
4Bn	4a-X@@8@@L	.
4d')	4aa-X@@8@@J	.
=161	=161	=161
4f'	4a-X@@8@@L	.
4r	4aa-X@@8@@J	.
4d'	4a-X@@8@@L	.
4r	4aa-X@@8@@J	.
=162	=162	=162
4B'	8a-XL	.
.	8aa-X	.
4r	8g	.
.	8ggJ	.
4G'	8gL	.
.	8gg	.
4r	8f	.
.	8ffJ	.
=163	=163	=163
4D-X' 4d-X	8fL	.
.	8ff	.
4r	8e	.
.	8eeJ	.
4BB-X' 4B-X	8e\L	.
.	8ee	.
4r	8d-X	.
.	8dd-XJ	.
=164	=164	=164
4GG'\ 4G	8d-XL	.
.	8dd-X	.
4r	8c	.
.	8ccJ	.
4EE'\ 4E	8cL	.
.	8cc	.
4r	8B-X	.
.	8b-XJ	.
=165	=165	=165
4FF'\ 4F	8B-XL	p
.	8b-X	.
4rGG	8A-X	.
.	8a-XJ	.
2rGG	8A-XL	.
.	8a-X	.
.	8G	.
.	8gJ	.
=166	=166	=166
4FFF 4FF	8GL	.
.	8g	.
4rEE	8F	.
.	8fJ	.
2rCC	8FL	.
.	8f	.
.	8E-X	.
.	8e-XJ	.
=167	=167	=167
4FFF#X\ 4FF#X	8E-XL	.
.	8e-X	.
4rEE	8D	.
.	8dJ	.
2rCC	8DL	.
.	8d	.
.	8E-X	.
.	8e-XJ	.
=168	=168	=168
4FFF#X\ 4FF#X	8E-XL	.
.	8e-X	.
4rEE	8D	.
.	8dJ	.
2rCC	8DL	.
.	8d	.
.	8C	.
.	8cJ	.
*	*clefF4	*
=169	=169	=169
4GGG@@8@@L	4BBn 4Bn	.
4GG@@8@@J	4r	.
4GGG@@8@@L	(8C#XL	pp
.	8A-X	.
4GG@@8@@J	8En	.
.	8C#XJ	.
=170	=170	=170
4GGG@@8@@L	8DL	.
.	8A-X	.
4GG@@8@@J	8F	.
.	8DJ	.
4GGG@@8@@L	8CnL	.
.	8A-X	.
4GG@@8@@J	8E-X	.
.	8CJ	.
=171	=171	=171
4GGG@@8@@L	8BBn\L	.
.	8G	.
4GG@@8@@J	8D	.
.	8BBJ	.
4GGG@@8@@L	8C#XL	.
.	8A-X	.
4GG@@8@@J	8En	.
.	8C#XJ	.
=172	=172	=172
4GGG@@8@@L	8DL	.
.	8A-X	.
4GG@@8@@J	8F	.
.	8DJ	.
4GGG@@8@@L	8CnL	.
.	8A-X	.
4GG@@8@@J	8E-X	.
.	8CJ	.
=173	=173	=173
4GGG@@8@@L	4BBn) 4D 4G	.
*	*clefG2	*
4GG@@8@@J	4en'	.
!	!LO:TX:t=cresc.	!
4GGG@@8@@L	4f'	.
4GG@@8@@J	4e' 4cc#X	.
=174	=174	=174
4GGG@@8@@L	4f'\ 4dd	.
4GG@@8@@J	4cc#X' 4ee	.
4GGG@@8@@L	4dd' 4ff	.
4GG@@8@@J	4ee' 4ccc#X	.
=175	=175	=175
*^	*	*
4GGG	(2GGG	4ff' 4ddd	.
2GG	.	4ccc#X' 4eee	.
.	2BBB	[2ddd [2fff	.
[4GG	.	.	.
=176	=176	=176	=176
4GG]	2CC	2ddd] 2fff]	.
2GG	.	.	.
.	2FFF#X)	2cccn 2eee-X	.
4GG	.	.	.
*v	*v	*	*
.	(16qdddLL	.
.	16qeee-XJJ)	.
=177	=177	=177
4GGG@@8@@L	4bbn 4ddd	.
4GG@@8@@J	4r	.
*	*clefF4	*
4GGG@@8@@L	(8C#XL	pp
.	8A-X	.
4GG@@8@@J	8En	.
.	8C#XJ	.
=178	=178	=178
4GGG@@8@@L	8DL	.
.	8A-X	.
4GG@@8@@J	8F	.
.	8DJ	.
4GGG@@8@@L	8CnL	.
.	8A-X	.
4GG@@8@@J	8E-X	.
.	8CJ	.
=179	=179	=179
4GGG@@8@@L	8BBn\L	.
.	8G	.
4GG@@8@@J	8D	.
.	8BBJ	.
4GGG@@8@@L	8C#XL	.
.	8A-X	.
4GG@@8@@J	8En	.
.	8C#XJ	.
=180	=180	=180
4GGG@@8@@L	8DL	.
.	8A-X	.
4GG@@8@@J	8F	.
.	8DJ	.
4GGG@@8@@L	8CnL	.
.	8A-X	.
4GG@@8@@J	8E-X	.
.	8CJ	.
=181	=181	=181
4GGG@@8@@L	4BBn) 4D 4G	.
*	*clefG2	*
!	!LO:TX:t=cresc.	!
4GG@@8@@J	4en'	.
4GGG@@8@@L	4f'	.
4GG@@8@@J	4e' 4cc#X	.
=182	=182	=182
4GGG@@8@@L	4f'\ 4dd	.
4GG@@8@@J	4cc#X' 4ee	.
4GGG@@8@@L	4dd' 4ff	.
4GG@@8@@J	4ee' 4ccc#X	.
=183	=183	=183
*^	*	*
4GGG	(2GGG	4ff' 4ddd	.
2GG	.	4ccc#X' 4eee	.
.	2BBBn	[2ddd [2fff	.
[4GG	.	.	.
=184	=184	=184	=184
4GG]	2CC	2ddd] 2fff]	.
2GG	.	.	.
.	2FFF#X)	2cccn 2eee-X	.
4GG	.	.	.
.	.	(16qdddLL	.
.	.	16qeee-XJJ)	.
=185	=185	=185	=185
4GGG	(2GGG	4bb' 4ddd	.
2GG	.	4ccc#X' 4eeen	.
.	2BBBn	[2ddd [2fff	.
[4GG	.	.	.
=186	=186	=186	=186
4GG]	2CC	2ddd] 2fff]	.
2GG	.	.	.
.	2FFF#X)	2cccn 2eee-X	.
4GG	.	.	.
.	.	(16qdddLL	.
.	.	16qeee-XJJ)	.
=187	=187	=187	=187
4GGG	(2GGG	4bb' 4ddd	.
2GG	.	4ccc#X' 4eeen	.
.	2BBBn	[2ddd [2fff	.
[4GG	.	.	.
=188	=188	=188	=188
4GG]	2CC	2ddd] 2fff]	.
2GG	.	.	.
.	2FFF#X)	2cccn 2eee-X	.
[4GG	.	.	.
*v	*v	*	*
.	(16qdddLL	.
.	16qeee-XJJ)	.
=189	=189	=189
4GGG' 4GG]	8bbnL 8ddd	fp
.	8fff	.
4r	8ddd	.
.	8cccJ	.
2r	8bbL	.
.	8fff	.
.	8ddd	.
.	8cccJ	.
=190	=190	=190
1r	8bbnL	.
.	8fff	.
.	8ddd	.
.	8cccJ	.
.	8bbL	.
.	8ddd	.
.	8bb	.
.	8ggJ	.
=191	=191	=191
1r	8aa-XL	.
.	8bb-X	.
.	8aa-X	.
.	8ggJ	.
.	8ffL	.
.	8aa-X	.
.	8ff	.
.	8ee-XJ	.
=192	=192	=192
1r	8ddL	.
.	8ff	.
.	8dd	.
.	8ccJ	.
.	8bnL	.
.	8dd	.
.	8b	.
.	8gJ	.
=193	=193	=193
1r	8a-X\L	.
.	8b-X	.
.	8a-X	.
.	8gJ	.
.	8f\L	.
.	8a-X	.
.	8f	.
.	8e-XJ	.
=194	=194	=194
1rGG	8dL	.
.	8f	.
.	8d	.
.	8cJ	.
*	*clefF4	*
.	8BnL	.
.	8d	.
.	8B	.
.	8GJ	.
=195	=195	=195
1rGG	8A-XL	.
.	8B-X	.
.	8A-X	.
.	8GJ	.
.	8FL	.
.	8E-X	.
.	8D	.
.	8CJ	.
=196	=196	=196
2rEE	8BBnL	.
.	8C	.
.	8BB	.
.	8AA-XJ	.
8GG\L	2rGG	.
8FF	.	.
8EE-X	.	.
8DDJ	.	.
*	*clefG2	*
=197	=197	=197
*k[b-e-a-]	*k[b-e-a-]	*
8CCL	2.c	p
8C	.	.
8CC	.	.
8CJ	.	.
8CCL	.	.
8C	.	.
8CC	4B-X' 4en	.
8CJ	.	.
=198	=198	=198
4CC@@8@@L	4A-' 4f	.
4C@@8@@J	4en' 4g	.
4CC@@8@@L	4f' 4a-	.
4C@@8@@J	4d' 4bn	.
=199	=199	=199
4CC@@8@@L	4e-X' 4cc	.
4C@@8@@J	2en 2cc	.
4CC@@8@@L	.	.
4C@@8@@J	4b-X' 4een	.
=200	=200	=200
4CC@@8@@L	4a-' 4ff	.
4C@@8@@J	4een' 4gg	.
4CC@@8@@L	4ff' 4aa-	.
4C@@8@@J	4dd' 4bbn	.
=201	=201	=201
!	!LO:TX:t=cresc.	!
4CC@@8@@L	2cc' 2ee-X 2gg 2ccc	.
4C@@8@@J	.	.
4DD@@8@@L	2g' 2bn 2ff 2gg	.
4D@@8@@J	.	.
=202	=202	=202
4EE-@@8@@L	2g' 2cc 2ee-	.
4E-@@8@@J	.	.
4FF@@8@@L	2f'\ 2a- 2dd	.
4F@@8@@J	.	.
=203	=203	=203
*	*^	*
4GG@@8@@L	[1e- [1cc	2g	.
4G@@8@@J	.	.	.
4AA-@@8@@/L	.	2f#X	.
4A-@@8@@/J	.	.	.
*	*v	*v	*
=204	=204	=204
4FF#X@@8@@L	(>2e-] 2an 2cc]	.
4F#X@@8@@J	.	.
4GG@@8@@L	2d) 2fn 2bn	.
4G@@8@@J	.	.
=205	=205	=205
4CC@@8@@L	4c' 4e- 4cc	p
4C@@8@@J	2c	.
4CC@@8@@L	.	.
4C@@8@@J	4B-X' 4en	.
=206	=206	=206
4CC@@8@@L	4A-' 4f	.
4C@@8@@J	4en' 4g	.
4CC@@8@@L	4f' 4a-X	.
4C@@8@@J	4d' 4bn	.
=207	=207	=207
4CC@@8@@L	4e-X' 4cc	.
4C@@8@@J	2en 2cc	.
4CC@@8@@L	.	.
4C@@8@@J	4b-X' 4een	.
=208	=208	=208
4CC@@8@@L	4a-' 4ff	.
4C@@8@@J	4een' 4gg	.
4CC@@8@@L	4ff' 4aa-	.
4C@@8@@J	4dd' 4bbn	.
=209	=209	=209
!	!LO:TX:t=cresc.	!
4CC@@8@@L	2cc' 2ee-X 2gg 2ccc	.
4C@@8@@J	.	.
4CC@@8@@L	2a-' 2ee- 2aa-	.
4C@@8@@J	.	.
=210	=210	=210
4DD-X@@8@@L	2a-' 2dd-X 2ff	.
4D-X@@8@@J	.	.
4EE-@@8@@L	2g-X' 2cc 2ee-	.
4E-@@8@@J	.	.
=211	=211	=211
4FF@@8@@L	2f' 2a- 2dd-X	.
4F@@8@@J	.	.
4GG-X@@8@@L	2d-X' 2g-X 2b-	.
4G-X@@8@@J	.	.
=212	=212	=212
*	*^	*
4AA-@@8@@/L	1a-	(2d-X 2f	.
4A-@@8@@/J	.	.	.
4AA-@@8@@/L	.	2c) 2e-	.
4A-@@8@@/J	.	.	.
*	*v	*v	*
=213	=213	=213
4AA-@@8@@/L	2dn' 2f 2b-	p
4A-@@8@@/J	.	.
!	!LO:TX:t=cresc.	!
4DDn@@8@@L	2b-' 2ff 2bb-	.
4D@@8@@J	.	.
=214	=214	=214
4EE-@@8@@L	2b-' 2ee- 2gg-X	.
4E-@@8@@J	.	.
4FF@@8@@L	2a-' 2ddn 2ff	.
4F@@8@@J	.	.
=215	=215	=215
4GG-X@@8@@L	2g-X' 2b- 2ee-	.
4G-X@@8@@J	.	.
4AA-@@8@@/L	2e-' 2a- 2cc-X	.
4A-@@8@@/J	.	.
=216	=216	=216
*	*^	*
4BB-@@8@@/L	1b-	(2e- 2g-X	.
4B-@@8@@/J	.	.	.
4BB-@@8@@/L	.	2d) 2f	.
4B-@@8@@/J	.	.	.
*	*v	*v	*
=217	=217	=217
4BB-@@8@@/L	2en' 2gn 2cc	p
4B-@@8@@/J	.	.
!	!LO:TX:t=cresc.	!
4EEn@@8@@L	2cc' 2gg 2ccc	.
4En@@8@@J	.	.
=218	=218	=218
4FF@@8@@L	2cc' 2ff 2aa-	.
4F@@8@@J	.	.
4GG@@8@@L	2b-' 2een 2gg	.
4G@@8@@J	.	.
=219	=219	=219
4AA-@@8@@/L	2a-' 2cc 2ff	.
4A-@@8@@/J	.	.
4BB-@@8@@/L	2f'\ 2dd-X	.
4B-@@8@@/J	.	.
=220	=220	=220
4C@@8@@L	2f' 2cc	.
4c@@8@@J	.	.
4D-X@@8@@L	2f' 2bn	.
4d-X@@8@@J	.	.
=221	=221	=221
4C 4c	4en' 4cc	.
4r	(4Bn	p
2r	4c	.
.	4Bn	.
=222	=222	=222
1r	4c	.
.	4Bn	.
.	4c	.
.	4Bn)	.
*clefG2	*	*
=223	=223	=223
*^	*	*
4r	1c	4r	.
*	*	*clefF4	*
4f 4a-	.	4C'\	.
4f 4a-	.	4F'	.
4f 4a-	.	4G'	.
=224	=224	=224	=224
4r	1c	4A-'	.
*	*	*clefG2	*
4f 4a-	.	4cc'	.
4f 4a-	.	4ff'	.
4f 4a-	.	4gg'	.
=225	=225	=225	=225
.	.	(8qcc	.
4r	1c	(2.aa-)	.
4f 4a-	.	.	.
4f 4a-	.	.	.
4f 4a-	.	4ff)	.
=226	=226	=226	=226
.	.	(8qcc	.
4r	1c	(2.aa-)	.
4f 4a-	.	.	.
4f 4a-	.	.	.
4f 4a-	.	4ff)	.
=227	=227	=227	=227
4r	1c	4een'	.
*	*	*clefF4	*
4g 4b-	.	4C'\	.
4g 4b-	.	4G'	.
4g 4b-	.	4A-'	.
=228	=228	=228	=228
4r	1c	4B-'	.
*	*	*clefG2	*
4g 4b-	.	(4cc	.
4g 4b-	.	4bb-	.
4g 4b-	.	4aa-)	.
=229	=229	=229	=229
4r	1c	(4aa-	.
4g 4b-	.	4gg)	.
4g 4b-	.	(4gg	.
4g 4b-	.	4ff)	.
=230	=230	=230	=230
4r	1c	(4ff	.
4g 4b-	.	4een)	.
4g 4b-	.	4dd'	.
4g 4b-	.	4een'	.
=231	=231	=231	=231
4r	1c	4ff'	.
*	*	*clefF4	*
4f 4a-	.	4C'\	.
4f 4a-	.	4F'	.
4f 4a-	.	4G'	.
=232	=232	=232	=232
4r	1c	4A-'	.
*	*	*clefG2	*
4f 4a-	.	4cc'	.
4f 4a-	.	4ff'	.
4f 4a-	.	4aa-'	.
=233	=233	=233	=233
.	.	(8qcc	.
4r	1A-	(2.ccc)	.
4c 4f	.	.	.
4c 4f	.	.	.
4c 4f	.	4ff)	.
=234	=234	=234	=234
.	.	(8qff	.
4r	1A-	(2.fff)	.
4c 4f	.	.	.
4c 4f	.	.	.
4c 4f	.	4ccc)	.
=235	=235	=235	=235
4r	1G	4bbn'	.
*	*	*clefF4	*
4d 4f	.	4GG'	.
4d 4f	.	4D'	.
4d 4f	.	4E-'	.
=236	=236	=236	=236
4r	1G	4F'	.
*	*	*clefG2	*
4d 4f	.	(4g	.
4d 4f	.	4ff	.
4d 4f	.	4ee-)	.
=237	=237	=237	=237
4r	1G	(4ee-	.
4d 4f	.	4dd)	.
4d 4f	.	(4dd	.
4d 4f	.	4cc)	.
=238	=238	=238	=238
4r	1G	(4cc	.
4d 4f	.	4bn)	.
4d 4f	.	4an'\	.
4d 4f	.	4bn'	.
=239	=239	=239	=239
4r	1G	4cc'	.
*	*	*clefF4	*
4c 4e-	.	4GG'	.
4c 4e-	.	4C'	.
4c 4e-	.	4D'/	.
=240	=240	=240	=240
4r	1G	4E-'	.
*	*	*clefG2	*
4c 4e-	.	4gg'	.
4c 4e-	.	4ccc'	.
4c 4e-	.	4ddd'	.
=241	=241	=241	=241
.	.	(8qgg	.
4r	1G	(2.eee-)	.
4c 4e-	.	.	.
4c 4e-	.	.	.
4c 4e-	.	4ccc)	.
=242	=242	=242	=242
.	.	(8qgg	.
4r	1G	(2.eee-)	.
4c 4e-	.	.	.
4c 4e-	.	.	.
4c 4e-	.	4ccc)	.
=243	=243	=243	=243
4r	1G	4bbn'	.
*	*	*clefF4	*
4d 4f	.	4GG'	.
4d 4f	.	4D'	.
4d 4f	.	4E-'	.
=244	=244	=244	=244
4r	1G	4F'	.
*	*	*clefG2	*
4d 4f	.	(4gg	.
4d 4f	.	4fff	.
4d 4f	.	4eee-)	.
=245	=245	=245	=245
4r	1G	(4eee-	.
4d 4f	.	4ddd)	.
4d 4f	.	(4ddd	.
4d 4f	.	4ccc)	.
=246	=246	=246	=246
4r	1G	(4ccc	.
4d 4f	.	4bbn)	.
4d 4f	.	(4aan	.
4d 4f	.	4bbn)	.
=247	=247	=247	=247
!	!	!LO:TX:t=decresc.	!
4r	1c	(4ddd	.
4e- 4g	.	4ccc)	.
4e- 4g	.	(4ccc	.
4e- 4g	.	4bb-X)	.
=248	=248	=248	=248
4r	1F	(4bb-	.
4e- 4f	.	4aan)	.
4e- 4f	.	(4gg	.
4e- 4f	.	4aan)	.
=249	=249	=249	=249
4r	1B-	(4ccc	.
4d-X 4f	.	4bb-X)	.
4d-X 4f	.	(4bb-	.
4d-X 4f	.	4aa-X)	.
=250	=250	=250	=250
4r	1E-	(4aa-	.
4d-X 4e-	.	4gg)	.
4d-X 4e-	.	(4ff	.
4d-X 4e-	.	4gg)	.
=251	=251	=251	=251
4r	1A-	(4bb-	.
4c 4e-	.	4aa-)	.
4c 4e-	.	(4aa-	.
4c 4e-	.	4gg)	.
=252	=252	=252	=252
4r	1A-	(4gg	.
4c 4e-	.	4ff#X)	.
4c 4e-	.	4ff#'	.
4c 4e-	.	4ff#'	.
=253	=253	=253	=253
4r	1G	(4aa-	pp
4c 4e-	.	4gg)	.
4c 4e-	.	4gg'	.
4c 4e-	.	4gg'	.
=254	=254	=254	=254
4r	1G	(4aa-	.
4Bn 4d	.	4gg)	.
4Bn 4d	.	4gg'	.
4Bn 4d	.	4gg'	.
*clefF4	*	*	*
=255	=255	=255	=255
*	*	*^	*
8rA	[1C	2ryy	8r	.
8GL	.	.	8c\L	p
8E-	.	.	8e-	.
8GJ	.	.	8cJ	.
8E-L	.	[2cc	8ccL	.
8G	.	.	8c	.
8E-	.	.	8e-	.
8GJ	.	.	8cJ	.
=256	=256	=256	=256	=256
8E-L	2C]	2cc]	8e-L	.
8G	.	.	8c	.
8E-	.	.	8e-	.
8GJ	.	.	8cJ	.
8rA	2C	2cc	8rc	.
8GL	.	.	8cL	.
8E-	.	.	8e-	.
8GJ	.	.	8cJ	.
=257	=257	=257	=257	=257
8r	[1BB-	2ryy	8r	.
8GL	.	.	8d-X\L	.
8En	.	.	8en	.
8GJ	.	.	8d-XJ	.
8EnL	.	[2dd-X	8dd-XL	.
8G	.	.	8d-X	.
8En	.	.	8en	.
8GJ	.	.	8d-XJ	.
=258	=258	=258	=258	=258
8EnL	2BB-]	2dd-X]	8enL	.
8G	.	.	8d-X	.
8En	.	.	8en	.
8GJ	.	.	8d-XJ	.
8r	2BB-	2dd-	8re	.
8GL	.	.	8d-L	.
8En	.	.	8en	.
8GJ	.	.	8d-XJ	.
*v	*v	*	*	*
=259	=259	=259	=259
!	!LO:TX:t=cresc.	!	!
*	*v	*v	*
8AA-'L	8cc'L	.
8F	8c	.
8C	8f	.
8FJ	8cJ	.
8BB-'L	8een'L	.
8G	8en	.
8C	8cc	.
8GJ	8enJ	.
=260	=260	=260
8AA-'L	8ff'\L	.
8F	8f	.
8C	8cc	.
8FJ	8fJ	.
8GG'L	8gg'L	.
8G	8g	.
8C	8cc	.
8GJ	8gJ	.
=261	=261	=261
8FF'L	8aa-'L	.
8F	8a-	.
8C	8cc	.
8FJ	8a-J	.
8EE-X'L	8aan'L	.
8E-X	8an	.
8C	8cc	.
8E-J	8anJ	.
=262	=262	=262
!	!	!LO:HP:b
8DD'L	8bbn'L	<
8D	8bn	.
8GG	8ff	.
8DJ	8bnJ	.
8CC'L	8ccc'L	.
8C	8cc	.
8GG	8ff	.
8CJ	8ccJ	.
=263	=263	=263
8BBBn'L	8ddd'L	.
8BBn	8dd	.
8GG	8ff	.
8BBnJ	8ddJ	.
8BBB-X'L	8eeen'L	.
8BB-X	8een	.
8CC	8gg	.
8BB-J	8eenJ	.
=264	=264	=264
8AAA-'L	8fff'L	.
8AA-	8ff	.
8CC	8aa-	.
8AA-J	8ffJ	.
8FFF'L	8ddd'L	.
8FF	8ff	.
8CC	8aa-	.
8FFJ	8ffJ	.
=265	=265	=265
4GGG 4GG	8r	.
.	8ee-XL	f
4r	8gg	.
.	8ee-J	.
2r	8cccL	.
.	8ee-	.
.	8gg	.
.	8ee-J	.
=266	=266	=266
4GG 4G	8r	.
.	8ddL	.
4r	8ff	.
.	8ddJ	.
2r	8bbn'L	.
.	8dd	.
.	8ff	.
.	8ddJ	.
=267	=267	=267
*^	*^	*
8rA	[1C	2ryy	8r	.
8GL	.	.	8c\L	p
8E-	.	.	8e-	.
8GJ	.	.	8cJ	.
8E-L	.	[2cc	8ccL	.
8G	.	.	8c	.
8E-	.	.	8e-	.
8GJ	.	.	8cJ	.
=268	=268	=268	=268	=268
8E-L	2C]	2cc]	8e-L	.
8G	.	.	8c	.
8E-	.	.	8e-	.
8GJ	.	.	8cJ	.
8rA	2C	2cc	8rc	.
8GL	.	.	8cL	.
8E-	.	.	8e-	.
8GJ	.	.	8cJ	.
=269	=269	=269	=269	=269
8r	[1BB-	2ryy	8r	.
8GL	.	.	8d-X\L	.
8En	.	.	8en	.
8GJ	.	.	8d-XJ	.
8EnL	.	[2dd-X	8dd-XL	.
8G	.	.	8d-X	.
8En	.	.	8en	.
8GJ	.	.	8d-XJ	.
=270	=270	=270	=270	=270
8EnL	2BB-]	2dd-X]	8enL	.
8G	.	.	8d-X	.
8En	.	.	8en	.
8GJ	.	.	8d-XJ	.
8rA	2BB-	2dd-	8rc	.
8GL	.	.	8d-L	.
8En	.	.	8en	.
8GJ	.	.	8d-XJ	.
*v	*v	*	*	*
=271	=271	=271	=271
!	!LO:TX:t=cresc.	!	!
*	*v	*v	*
8AA-'L	8cc'L	.
8F	8c	.
8C	8f	.
8FJ	8cJ	.
8BB-'L	8een'L	.
8G	8en	.
8C	8cc	.
8GJ	8enJ	.
=272	=272	=272
8AA-'L	8ff'\L	.
8F	8f	.
8C	8cc	.
8FJ	8fJ	.
8GG'L	8gg'L	.
8G	8g	.
8C	8cc	.
8GJ	8gJ	.
=273	=273	=273
8FF'L	8aa-'L	.
8F	8a-	.
8C	8cc	.
8FJ	8a-J	.
8EE-'L	8aan'L	.
8E-	8an	.
8C	8cc	.
8E-J	8anJ	.
=274	=274	=274
!	!	!LO:HP:b
8DD'L	8bbn'L	<
8D	8bn	.
8GG	8ff	.
8DJ	8bnJ	.
8CC'L	8ccc'L	.
8C	8cc	.
8GG	8ff	.
8CJ	8ccJ	.
=275	=275	=275
8BBBn'L	8ddd'L	.
8BBn	8dd	.
8GG	8ff	.
8BBnJ	8ddJ	.
8BBB-X'L	8eeen'L	.
8BB-X	8een	.
8CC	8gg	.
8BB-J	8eenJ	.
=276	=276	=276
8AAA-'L	8fff'L	.
8AA-	8ff	.
8CC	8aa-	.
8AA-J	8ffJ	.
8FFF'L	8ddd'L	.
8FF	8ff	.
8CC	8aa-	.
8FFJ	8ffJ	.
=277	=277	=277
4GGG 4GG	8r	.
.	8ee-XL	f
4r	8gg	.
.	8ee-J	.
2r	8ccc'L	.
.	8ee-	.
.	8gg	.
.	8ee-J	.
=278	=278	=278
4GG 4G	8r	.
.	8ddL	.
4r	8ff	.
.	8ddJ	.
2r	8bbn'L	.
.	8dd	.
.	8ff	.
.	8ddJ	.
=279	=279	=279
4C	4cc	.
4c 4e-	(2ccc	p
4c 4e-	.	.
4c 4e-	8bbnL	.
.	8cccJ	.
=280	=280	=280
*^	*	*
4r	1A-	8dddL	.
.	.	8ccc	.
4c 4e-	.	8bb-X	.
.	.	8aa-J	.
4c 4e-	.	8ggL	.
.	.	8aa-	.
4c 4e-	.	8bb-	.
.	.	8aa-J	.
=281	=281	=281	=281
4r	1F	8ggL	.
.	.	8ff	.
4c 4d	.	8ee-	.
.	.	8ddJ	.
4c 4d	.	8cc#XL	.
.	.	8dd	.
4c 4d	.	8ee-	.
.	.	8ddJ	.
=282	=282	=282	=282
4r	1G	8ccnL	.
.	.	8bn	.
4Bn 4d	.	8a-	.
.	.	8gJ	.
4Bn 4d	.	8f#XL	.
.	.	8g	.
4Bn 4d	.	8a-	.
.	.	8fnJ	.
=283	=283	=283	=283
4r	1C	4e-')	.
!	!	!LO:TX:t=cresc.	!
4E- 4c	.	(2cc 2ccc	.
4E- 4c	.	.	.
4E- 4c	.	8bbnL	.
.	.	8cccJ	.
=284	=284	=284	=284
4r	1AA-	8dddL	.
.	.	8ccc	.
4C 4E- 4A-	.	8bb-X	.
.	.	8aa-J	.
4C 4E- 4A-	.	8ggL	.
.	.	8aa-	.
4C 4E- 4A-	.	8bb-	.
.	.	8aa-J	.
=285	=285	=285	=285
4r	1FF	8ggL	.
.	.	8ff	.
4C 4D 4F	.	8ee-	.
.	.	8ddJ	.
4C 4D 4F	.	8cc#XL	.
.	.	8dd	.
4C 4D 4F	.	8ee-	.
.	.	8ddJ	.
=286	=286	=286	=286
4r	1GG	8ccnL	.
.	.	8bn	.
4BBn 4D 4G	.	8a-	.
.	.	8gJ	.
4BBn 4D 4G	.	8f#XL	.
.	.	8g	.
4BBn 4D 4G	.	8a-	.
.	.	8gJ	.
*v	*v	*	*
=287	=287	=287
8CCL	4cc)	.
8C	.	.
8CC	2c	f
8CJ	.	.
4CC@@8@@L	.	.
4C@@8@@J	4B-X' 4en	.
=288	=288	=288
4CC@@8@@L	4A-' 4f	.
4C@@8@@J	4en' 4g	.
4CC@@8@@L	4f' 4a-	.
4C@@8@@J	4d' 4bn	.
=289	=289	=289
4CC@@8@@L	4e-X' 4cc	.
4C@@8@@J	2en 2cc	.
4CC@@8@@L	.	.
4C@@8@@J	4b-X' 4een	.
=290	=290	=290
4CC@@8@@L	4a-' 4ff	.
4C@@8@@J	4een' 4gg	.
4CC@@8@@L	4ff' 4aa-	.
4C@@8@@J	4dd' 4bbn	.
=291	=291	=291
4CC@@8@@L	1cc 1ee-X 1ccc	f
4C@@8@@J	.	.
4CC@@8@@L	.	.
4C@@8@@J	.	.
=292	=292	=292
4BBB-X@@8@@L	1c 1e- 1cc	.
4BB-@@8@@J	.	.
4BBB-@@8@@L	.	.
4BB-@@8@@J	.	.
=293	=293	=293
4AAA-@@8@@L	1cc 1ee- 1ccc	.
4AA-@@8@@J	.	.
4AAA-@@8@@L	.	.
4AA-@@8@@J	.	.
=294	=294	=294
4GGG@@8@@L	1c 1e- 1cc	.
4GG@@8@@J	.	.
4GGG@@8@@L	.	.
4GG@@8@@J	.	.
=295	=295	=295
1FFF#X 1FF#X	1ee- 1aan 1ccc 1eee-	ff
=296	=296	=296
1FF#X; 1AAn 1C 1E-	1F#X; 1An 1c 1e-	ff
=297	=297	=297
*M4/4	*M4/4	*
!	!LO:TX:a:t=Grave [quarter]=40	!
4r	4r	.
16r	16r	.
32e-KLL	32f#XKLL 32an 32cc	p
16.d	16.f#X 16.an 16.dd	.
32cJJk	32f#XJJk 32an 32ee-	.
(4c	(>4f#X/ 4an 4ee-	.
8Bn)	8g/) 8bn 8dd	.
8r	8r	.
=298	=298	=298
4r	4r	.
16.r	16.r	.
*clefG2	*	*
32a-KLL	32bnKLL 32dd 32ffn	.
16.g	16.bn 16.dd 16.gg	.
32fJJk	32bnJJk 32dd 32aa-X	.
(4f	(4bn 4dd 4aa-	.
8e-)	8cc) 8ee- 8gg	.
8r	8r	.
=299	=299	=299
4r	4r	.
16.r	16.r	.
!	!LO:TX:t=cresc.	!
32d-XKLL 32en 32g	32b-XKLL 32een 32gg 32bb-X	.
16.c 16.en 16.g	16.cc 16.een 16.gg 16.ccc	.
32B-XJJk 32en 32g	32dd-XJJk 32een 32gg 32ddd-X	.
!	!	!LO:HP:b
(>[4A- 4B- 4en 4g	4dd-X 4een 4gg 4ddd-	>
8A-]L 8c 8f 8a-	(8ccL 8ccc	.
8GJ 8c 8e-X	8b-J 8bb-	.
*clefF4	*	*
=300	=300	=300
!	!LO:TX:t=decresc.	!
8FL 8c 8f	8a-L 8aa-	.
8E-X 8G 8c	8g 8gg	.
8Dn 8G 8Bn	8f 8ff	.
8CJ 8G 8c	8e-XJ) 8ee-X	.
8F)	8r	.
8r	8f 8a- 8ddn	pp
8GGG\ 8GG	8r	.
8rGG	8D 8F 8Bn	.
=301	=301	=301
*M2/2	*M2/2	*
!	!LO:TX:a:t=Allegro molto e con brio [quarter]=320	!
4CC@@8@@L	2.c	p
4C@@8@@J	.	.
4CC@@8@@L	.	.
4C@@8@@J	4B-X' 4en	.
=302	=302	=302
4CC@@8@@L	4A-' 4f	.
4C@@8@@J	4en' 4g	.
4CC@@8@@L	4f' 4a-	.
4C@@8@@J	4d' 4bn	.
=303	=303	=303
4CC@@8@@L	4e-X' 4cc	.
4C@@8@@J	2en 2cc	.
4CC@@8@@L	.	.
4C@@8@@J	4b-X' 4een	.
=304	=304	=304
4CC@@8@@L	4a-' 4ff	.
4C@@8@@J	4een' 4gg	.
4CC@@8@@L	4ff' 4aa-	.
4C@@8@@J	4dd' 4bbn	.
=305	=305	=305
!	!LO:TX:t=cresc.	!
4CC@@8@@L	2ee-X' 2ccc	.
4C@@8@@J	.	.
4BBB-X@@8@@L	2cc' 2ee- 2ccc	.
4BB-X@@8@@J	.	.
=306	=306	=306
4AAA-@@8@@L	2cc' 2ee- 2ccc	.
4AA-@@8@@J	.	.
4GGG@@8@@L	2cc' 2ee- 2ccc	.
4GG@@8@@J	.	.
=307	=307	=307
4FFF#X' 4FF#X	4ee-' 4aan 4ccc 4eee-	ff
4r	4r	.
2r	2r	.
=308	=308	=308
4F#X' 4An 4c 4e-	4f#X' 4an 4cc 4ee-	.
4r	4r	.
2r	2r	.
=309	=309	=309
4G' 4c 4e-	4g' 4cc 4ee- 4gg	.
4r	4r	.
2r	2r	.
*	*clefF4	*
=310	=310	=310
4GGG' 4BBBn 4DD 4GG	4D' 4F 4G 4Bn	ff
4rEE	4r	.
2rCC	2r	.
=311	=311	=311
4CC' 4EE- 4GG 4C	4E-' 4G 4c	.
4rEE	4r	.
2rCC	2r	.
=312	=312	=312
1r;	1r;	.
==	==	==
*-	*-	*-
!!!OMD: Grave — Allegro molto e con brio
!!!OMV: 1
!!!OPS: 13
!!!OTP: pathétique
!!!LOR: Durand 1915, plates 9327/9328, Paul Dukas, ed.
!!!ENC: Craig Stuart Sapp
!!!EED: Craig Stuart Sapp
!!!CDT: 1770///-1827///
!!!URL-vhv: https://verovio.humdrum.org/?file=beethoven/sonatas/sonata08-1.krn
!!!URL-pdf: https://github.com/craigsapp/beethoven-piano-sonatas/blob/master/reference-edition/sonata08-1.pdf
!!!END: 2008/02/25
!!!EEV: 2021/01/19
!!!RDF**kern: > = above
!!!RDF**kern: < = below
